X: 1
T: Crowley's
R: reel
M: 4/4
L: 1/8
K: Dmaj
B|A3d B2dB|ADFD ADFD|A3A BABc|dfeg fddB|
ADFA B2 dB|ADFD ADFD|A3A BABc|d2 eg fdde||
f3a g2fg|eA c/B/A eA c/B/A|f3a g2 fg|afge fdde|
f3a g2fg|eA c/B/A eA c/B/A|f3a g2 fg|afge fd d||


Tune 759	Setting 23480

